X:627
T:Dom Oiche Ud I mBeithil
O:ireland
S:irtrad-l, J. Walsh, 12/94
R:air
M:3/4
K:D
F2|B4d2|c4 BA|B6-|B2 z2 Bc|d3e f2|c4 B2|A6-|A2 z2 F2|B4d2|c4 BA|B6-|B2 z
